svgs/sharp-light/location-plus.svg

<svg xmlns="http://www.w3.org/2000/svg" viewBox="0 0 384 512"><!--! Font Awesome Pro 6.6.0 by @fontawesome - https://fontawesome.com License - https://fontawesome.com/license (Commercial License) Copyright 2024 Fonticons, Inc. --><path d="M352 192c0-88.4-71.6-160-160-160S32 103.6 32 192c0 20.2 9.1 48.6 26.5 82.7c16.9 33.2 39.9 68.2 63.4 100.5c23.4 32.2 46.9 61 64.5 81.9c1.9 2.3 3.8 4.5 5.6 6.6c1.8-2.1 3.6-4.3 5.6-6.6c17.7-20.8 41.1-49.7 64.5-81.9c23.5-32.3 46.4-67.3 63.4-100.5C342.9 240.6 352 212.2 352 192zm32 0c0 88.8-120.7 237.9-170.7 295.9C200.2 503.1 192 512 192 512s-8.2-8.9-21.3-24.1C120.7 429.9 0 280.8 0 192C0 86 86 0 192 0S384 86 384 192zM208 96l0 16 0 64 64 0 16 0 0 32-16 0-64 0 0 64 0 16-32 0 0-16 0-64-64 0-16 0 0-32 16 0 64 0 0-64 0-16 32 0z"/></svg>

<svg xmlns="http://www.w3.org/2000/svg" viewBox="0 0 384 512"><!--! Font Awesome Pro 6.4.2 by @fontawesome - https://fontawesome.com License - https://fontawesome.com/license (Commercial License) Copyright 2023 Fonticons, Inc. --><path d="M352 192c0-88.4-71.6-160-160-160S32 103.6 32 192c0 20.2 9.1 48.6 26.5 82.7c16.9 33.2 39.9 68.2 63.4 100.5c23.4 32.2 46.9 61 64.5 81.9c1.9 2.3 3.8 4.5 5.6 6.6c1.8-2.1 3.6-4.3 5.6-6.6c17.7-20.8 41.1-49.7 64.5-81.9c23.5-32.3 46.4-67.3 63.4-100.5C342.9 240.6 352 212.2 352 192zm32 0c0 88.8-120.7 237.9-170.7 295.9C200.2 503.1 192 512 192 512s-8.2-8.9-21.3-24.1C120.7 429.9 0 280.8 0 192C0 86 86 0 192 0S384 86 384 192zM208 96v16 64h64 16v32H272 208v64 16H176V272 208H112 96V176h16 64V112 96h32z"/></svg>
